; generated by Slic3r 1.2.9 on 2021-12-06 at 19:48:55

; external perimeters extrusion width = 0.30mm
; perimeters extrusion width = 0.31mm
; infill extrusion width = 0.31mm
; solid infill extrusion width = 0.31mm
; top infill extrusion width = 0.31mm
; support material extrusion width = 0.30mm

M190 S50 ; set bed temperature
M104 S230 ; set temperature
G28 ; home all axes
G1 Z5 F5000 ; lift nozzle
G1 Z20           ; levanta struder
G1 Y20 X20   ;  dezplaza x e y para no tocar el tornoillo de la 

M109 S230 ; wait for temperature to be reached
G21 ; set units to millimeters
G90 ; use absolute coordinates
M82 ; use absolute distances for extrusion
G92 E0
M106 S89.25
G1 E-1.00000 F1800.00000
G92 E0
G1 Z0.300 F7800.000
G1 X75.004 Y75.787 F7800.000
G1 E1.00000 F1800.00000
G1 X76.753 Y74.328 E1.15217 F1080.000
G1 X80.000 Y73.464 E1.37660
G1 X120.000 Y73.464 E4.04882
G1 X122.243 Y73.861 E4.20099
G1 X124.213 Y75.004 E4.35316 F1080.000
G1 X125.672 Y76.753 E4.50533
G1 X126.536 Y80.000 E4.72976
G1 X126.536 Y120.000 E7.40198
G1 X126.139 Y122.243 E7.55415
G1 X124.996 Y124.213 E7.70632
G1 X123.247 Y125.672 E7.85849
G1 X120.000 Y126.536 E8.08292
G1 X80.000 Y126.536 E10.75514
G1 X77.757 Y126.139 E10.90731
G1 X75.787 Y124.996 E11.05948
G1 X74.328 Y123.247 E11.21165
G1 X73.464 Y120.000 E11.43608
G1 X73.464 Y80.000 E14.10829
G1 X73.861 Y77.757 E14.26047
G1 X74.981 Y75.825 E14.40963
G1 E13.40963 F1800.00000
G92 E0
G1 X77.874 Y78.718 F7800.000
G1 E1.00000 F1800.00000
G1 X79.002 Y77.590 E1.10657 F1080.000
G1 X120.998 Y77.590 E3.91218
G1 X122.410 Y79.002 E4.04557
G1 X122.410 Y120.998 E6.85118 F1080.000
G1 X120.998 Y122.410 E6.98458
G1 X79.002 Y122.410 E9.79019
G1 X77.590 Y120.998 E9.92358
G1 X77.590 Y79.002 E12.72919
G1 X77.842 Y78.750 E12.75301
G1 X78.221 Y79.128 F7800.000
G1 X79.223 Y78.125 E12.84776 F1080.000
G1 X120.777 Y78.125 E15.62373
G1 X121.875 Y79.223 E15.72748 F1080.000
G1 X121.875 Y120.777 E18.50345
G1 X120.777 Y121.875 E18.60720
G1 X79.223 Y121.875 E21.38316
G1 X78.125 Y120.777 E21.48691
G1 X78.125 Y79.223 E24.26288
G1 X78.189 Y79.160 E24.26887
G1 X78.661 Y79.445 F7800.000
G1 X79.445 Y78.661 E24.34298 F1080.000
G1 X120.555 Y78.661 E27.08930
G1 X121.339 Y79.445 E27.16341
G1 X121.339 Y120.555 E29.90973 F1080.000
G1 X120.555 Y121.339 E29.98384
G1 X79.445 Y121.339 E32.73016
G1 X78.661 Y120.555 E32.80427
G1 X78.661 Y79.490 E35.54759
G1 X79.197 Y79.667 F7800.000
G1 X79.667 Y79.197 E35.59205 F1080.000
G1 X120.333 Y79.197 E38.30873
G1 X120.803 Y79.667 E38.35320 F1080.000
G1 X120.803 Y120.333 E41.06988
G1 X120.333 Y120.803 E41.11434
G1 X79.667 Y120.803 E43.83102
G1 X79.197 Y120.333 E43.87549
G1 X79.197 Y79.712 E46.58916
G1 X79.732 Y79.889 F7800.000
G1 X79.889 Y79.732 E46.60399 F1080.000
G1 X120.111 Y79.732 E49.29102
G1 X120.268 Y79.889 E49.30584
G1 X120.268 Y120.111 E51.99288 F1080.000
G1 X120.111 Y120.268 E52.00770
G1 X79.889 Y120.268 E54.69474
G1 X79.732 Y120.111 E54.70956
G1 X79.732 Y79.934 E57.39359
G1 X80.300 Y80.300 F7800.000
G1 X119.700 Y80.300 E60.02573 F378.000
G1 X119.700 Y119.700 E62.65786
G1 X80.300 Y119.700 E65.28999 F378.000
G1 X80.300 Y80.345 E67.91912
G1 X80.560 Y80.450 F7800.000
G1 X80.836 Y80.836 F7800.000
G1 X119.164 Y80.836 E70.47969 F540.000
G1 X119.164 Y119.164 E73.04026
G1 X80.836 Y119.164 E75.60083 F540.000
G1 X80.836 Y80.881 E78.15839
G1 X98.997 Y118.629 F7800.000
G1 X81.371 Y118.629 E79.33587 F540.000
G1 X81.371 Y81.371 E81.82487
G1 X118.629 Y81.371 E84.31388
G1 X118.629 Y118.629 E86.80288
G1 X99.042 Y118.629 E88.11140 F540.000
G1 X81.960 Y118.307 F7800.000
G1 X81.693 Y118.040 E88.13690 F1080.000
G1 X81.693 Y117.275 E88.18854
G1 X82.725 Y118.307 E88.28707
G1 X83.490 Y118.307 E88.33871
G1 X81.693 Y116.510 E88.51027
G1 X81.693 Y115.744 E88.56191
G1 X84.256 Y118.307 E88.80650
G1 X85.021 Y118.307 E88.85814
G1 X81.693 Y114.979 E89.17577
G1 X81.693 Y114.214 E89.22741
G1 X85.786 Y118.307 E89.61806
G1 X86.551 Y118.307 E89.66970
G1 X81.693 Y113.449 E90.13339
G1 X81.693 Y112.684 E90.18503
G1 X87.316 Y118.307 E90.72174
G1 X88.082 Y118.307 E90.77338
G1 X81.693 Y111.918 E91.38313
G1 X81.693 Y111.153 E91.43477
G1 X88.847 Y118.307 E92.11755
G1 X89.612 Y118.307 E92.16919
G1 X81.693 Y110.388 E92.92499
G1 X81.693 Y109.623 E92.97664
G1 X90.377 Y118.307 E93.80547
G1 X91.142 Y118.307 E93.85711
G1 X81.693 Y108.858 E94.75898
G1 X81.693 Y108.092 E94.81062
G1 X91.908 Y118.307 E95.78553
G1 X92.673 Y118.307 E95.83717
G1 X81.693 Y107.327 E96.88510
G1 X81.693 Y106.562 E96.93674
G1 X93.438 Y118.307 E98.05770
G1 X94.203 Y118.307 E98.10934
G1 X81.693 Y105.797 E99.30333
G1 X81.693 Y105.032 E99.35497
G1 X94.968 Y118.307 E100.62200
G1 X95.734 Y118.307 E100.67364
G1 X81.693 Y104.266 E102.01369
G1 X81.693 Y103.501 E102.06533
G1 X96.499 Y118.307 E103.47842
G1 X97.264 Y118.307 E103.53006
G1 X81.693 Y102.736 E105.01618
G1 X81.693 Y101.971 E105.06782
G1 X98.029 Y118.307 E106.62696
G1 X98.794 Y118.307 E106.67860
G1 X81.693 Y101.206 E108.31078
G1 X81.693 Y100.440 E108.36242
G1 X99.560 Y118.307 E110.06763
G1 X100.325 Y118.307 E110.11927
G1 X81.693 Y99.675 E111.89751
G1 X81.693 Y98.910 E111.94915
G1 X101.090 Y118.307 E113.80042
G1 X101.855 Y118.307 E113.85206
G1 X81.693 Y98.145 E115.77636
G1 X81.693 Y97.380 E115.82800
G1 X102.620 Y118.307 E117.82534
G1 X103.386 Y118.307 E117.87698
G1 X81.693 Y96.614 E119.94734
G1 X81.693 Y95.849 E119.99898
G1 X104.151 Y118.307 E122.14237
G1 X104.916 Y118.307 E122.19401
G1 X81.693 Y95.084 E124.41044
G1 X81.693 Y94.319 E124.46208
G1 X105.681 Y118.307 E126.75154
G1 X106.446 Y118.307 E126.80318
G1 X81.693 Y93.554 E129.16566
G1 X81.693 Y92.788 E129.21730
G1 X107.212 Y118.307 E131.65282
G1 X107.977 Y118.307 E131.70446
G1 X81.693 Y92.023 E134.21301
G1 X81.693 Y91.258 E134.26465
G1 X108.742 Y118.307 E136.84623
G1 X109.507 Y118.307 E136.89787
G1 X81.693 Y90.493 E139.55248
G1 X81.693 Y89.728 E139.60412
G1 X110.272 Y118.307 E142.33176
G1 X111.038 Y118.307 E142.38340
G1 X81.693 Y88.962 E145.18407
G1 X81.693 Y88.197 E145.23571
G1 X111.803 Y118.307 E148.10941
G1 X112.568 Y118.307 E148.16105
G1 X81.693 Y87.432 E151.10779
G1 X81.693 Y86.667 E151.15943
G1 X113.333 Y118.307 E154.17919
G1 X114.098 Y118.307 E154.23083
G1 X81.693 Y85.902 E157.32363
G1 X81.693 Y85.136 E157.37527
G1 X114.864 Y118.307 E160.54109
G1 X115.629 Y118.307 E160.59273
G1 X81.693 Y84.371 E163.83159
G1 X81.693 Y83.606 E163.88323
G1 X116.394 Y118.307 E167.19512
G1 X117.159 Y118.307 E167.24676
G1 X81.693 Y82.841 E170.63168
G1 X81.693 Y82.076 E170.68332
G1 X117.924 Y118.307 E174.14127
G1 X118.307 Y117.925 E174.17778
G1 X82.075 Y81.693 E177.63574
G1 X82.841 Y81.693 E177.68738
G1 X118.307 Y117.159 E181.07230
G1 X118.307 Y116.394 E181.12394
G1 X83.606 Y81.693 E184.43584
G1 X84.371 Y81.693 E184.48748
G1 X118.307 Y115.629 E187.72634
G1 X118.307 Y114.864 E187.77798
G1 X85.136 Y81.693 E190.94381
G1 X85.901 Y81.693 E190.99545
G1 X118.307 Y114.099 E194.08825
G1 X118.307 Y113.333 E194.13990
G1 X86.667 Y81.693 E197.15967
G1 X87.432 Y81.693 E197.21131
G1 X118.307 Y112.568 E200.15805
G1 X118.307 Y111.803 E200.20969
G1 X88.197 Y81.693 E203.08339
G1 X88.962 Y81.693 E203.13504
G1 X118.307 Y111.038 E205.93571
G1 X118.307 Y110.273 E205.98735
G1 X89.727 Y81.693 E208.71500
G1 X90.493 Y81.693 E208.76664
G1 X118.307 Y109.507 E211.42126
G1 X118.307 Y108.742 E211.47290
G1 X91.258 Y81.693 E214.05448
G1 X92.023 Y81.693 E214.10612
G1 X118.307 Y107.977 E216.61468
G1 X118.307 Y107.212 E216.66632
G1 X92.788 Y81.693 E219.10184
G1 X93.553 Y81.693 E219.15348
G1 X118.307 Y106.447 E221.51598
G1 X118.307 Y105.681 E221.56762
G1 X94.319 Y81.693 E223.85708
G1 X95.084 Y81.693 E223.90872
G1 X118.307 Y104.916 E226.12515
G1 X118.307 Y104.151 E226.17679
G1 X95.849 Y81.693 E228.32019
G1 X96.614 Y81.693 E228.37183
G1 X118.307 Y103.386 E230.44220
G1 X118.307 Y102.621 E230.49384
G1 X97.379 Y81.693 E232.49118
G1 X98.145 Y81.693 E232.54282
G1 X118.307 Y101.855 E234.46713
G1 X118.307 Y101.090 E234.51877
G1 X98.910 Y81.693 E236.37005
G1 X99.675 Y81.693 E236.42169
G1 X118.307 Y100.325 E238.19993
G1 X118.307 Y99.560 E238.25157
G1 X100.440 Y81.693 E239.95679
G1 X101.205 Y81.693 E240.00843
G1 X118.307 Y98.795 E241.64061
G1 X118.307 Y98.029 E241.69225
G1 X101.971 Y81.693 E243.25141
G1 X102.736 Y81.693 E243.30305
G1 X118.307 Y97.264 E244.78917
G1 X118.307 Y96.499 E244.84081
G1 X103.501 Y81.693 E246.25390
G1 X104.266 Y81.693 E246.30554
G1 X118.307 Y95.734 E247.64560
G1 X118.307 Y94.969 E247.69725
G1 X105.031 Y81.693 E248.96428
G1 X105.797 Y81.693 E249.01592
G1 X118.307 Y94.203 E250.20992
G1 X118.307 Y93.438 E250.26156
G1 X106.562 Y81.693 E251.38252
G1 X107.327 Y81.693 E251.43416
G1 X118.307 Y92.673 E252.48210
G1 X118.307 Y91.908 E252.53374
G1 X108.092 Y81.693 E253.50865
G1 X108.857 Y81.693 E253.56029
G1 X118.307 Y91.143 E254.46217
G1 X118.307 Y90.377 E254.51381
G1 X109.623 Y81.693 E255.34265
G1 X110.388 Y81.693 E255.39429
G1 X118.307 Y89.612 E256.15011
G1 X118.307 Y88.847 E256.20175
G1 X111.153 Y81.693 E256.88453
G1 X111.918 Y81.693 E256.93617
G1 X118.307 Y88.082 E257.54592
G1 X118.307 Y87.317 E257.59756
G1 X112.683 Y81.693 E258.13429
G1 X113.449 Y81.693 E258.18593
G1 X118.307 Y86.551 E258.64962
G1 X118.307 Y85.786 E258.70126
G1 X114.214 Y81.693 E259.09192
G1 X114.979 Y81.693 E259.14356
G1 X118.307 Y85.021 E259.46119
G1 X118.307 Y84.256 E259.51283
G1 X115.744 Y81.693 E259.75743
G1 X116.509 Y81.693 E259.80907
G1 X118.307 Y83.491 E259.98064
G1 X118.307 Y82.725 E260.03228
G1 X117.275 Y81.693 E260.13081
G1 X118.040 Y81.693 E260.18245
G1 X118.307 Y81.960 E260.20796
G1 E259.20796 F1800.00000
G92 E0
G1 Z0.300 F7800.000
G1 Z0.600 F7800.000
G1 X110.593 Y80.644 F7800.000
G1 E1.00000 F1800.00000
G1 X119.356 Y80.644 E1.27394 F1800.000
G1 X119.356 Y119.356 E2.48404
G1 X80.644 Y119.356 E3.69414 F1800.000
G1 X80.644 Y80.644 E4.90424
G1 X110.548 Y80.644 E5.83900
G1 X110.548 Y80.393 F7800.000
G1 X119.607 Y80.393 E6.12217 F1800.000
G1 X119.607 Y119.607 E7.34794
G1 X80.393 Y119.607 E8.57371 F1800.000
G1 X80.393 Y80.393 E9.79948
G1 X110.503 Y80.393 E10.74067
G1 X110.503 Y80.150 F7800.000
G1 X119.850 Y80.150 E11.01536 F1260.000
G1 X119.850 Y119.850 E12.18205
G1 X80.150 Y119.850 E13.34875 F1260.000
G1 X80.150 Y80.150 E14.51544
G1 X110.458 Y80.150 E15.40612
G1 X110.653 Y80.410 F7800.000
G1 X80.930 Y80.784 F7800.000
G1 X80.784 Y80.930 E15.41258 F3600.000
G1 X80.784 Y81.284 E15.42367
G1 X81.284 Y80.784 E15.44581
G1 X81.639 Y80.784 E15.45689
G1 X80.784 Y81.639 E15.49470
G1 X80.784 Y81.993 E15.50579
G1 X81.993 Y80.784 E15.55927
G1 X82.348 Y80.784 E15.57036
G1 X80.784 Y82.348 E15.63952
G1 X80.784 Y82.702 E15.65061
G1 X82.702 Y80.784 E15.73544
G1 X83.057 Y80.784 E15.74653
G1 X80.784 Y83.057 E15.84704
G1 X80.784 Y83.411 E15.85812
G1 X83.411 Y80.784 E15.97431
G1 X83.766 Y80.784 E15.98539
G1 X80.784 Y83.766 E16.11726
G1 X80.784 Y84.120 E16.12834
G1 X84.120 Y80.784 E16.27588
G1 X84.475 Y80.784 E16.28696
G1 X80.784 Y84.475 E16.45017
G1 X80.784 Y84.829 E16.46126
G1 X84.829 Y80.784 E16.64014
G1 X85.184 Y80.784 E16.65123
G1 X80.784 Y85.184 E16.84579
G1 X80.784 Y85.538 E16.85687
G1 X85.538 Y80.784 E17.06711
G1 X85.893 Y80.784 E17.07819
G1 X80.784 Y85.893 E17.30410
G1 X80.784 Y86.247 E17.31519
G1 X86.247 Y80.784 E17.55677
G1 X86.602 Y80.784 E17.56785
G1 X80.784 Y86.602 E17.82512
G1 X80.784 Y86.956 E17.83620
G1 X86.956 Y80.784 E18.10913
G1 X87.311 Y80.784 E18.12022
G1 X80.784 Y87.311 E18.40883
G1 X80.784 Y87.665 E18.41991
G1 X87.665 Y80.784 E18.72420
G1 X88.020 Y80.784 E18.73528
G1 X80.784 Y88.020 E19.05524
G1 X80.784 Y88.374 E19.06632
G1 X88.374 Y80.784 E19.40196
G1 X88.729 Y80.784 E19.41304
G1 X80.784 Y88.729 E19.76435
G1 X80.784 Y89.083 E19.77543
G1 X89.083 Y80.784 E20.14242
G1 X89.438 Y80.784 E20.15350
G1 X80.784 Y89.438 E20.53616
G1 X80.784 Y89.792 E20.54724
G1 X89.792 Y80.784 E20.94558
G1 X90.147 Y80.784 E20.95666
G1 X80.784 Y90.147 E21.37067
G1 X80.784 Y90.501 E21.38175
G1 X90.501 Y80.784 E21.81143
G1 X90.856 Y80.784 E21.82252
G1 X80.784 Y90.856 E22.26787
G1 X80.784 Y91.210 E22.27896
G1 X91.210 Y80.784 E22.73999
G1 X91.565 Y80.784 E22.75107
G1 X80.784 Y91.565 E23.22778
G1 X80.784 Y91.919 E23.23886
G1 X91.919 Y80.784 E23.73125
G1 X92.274 Y80.784 E23.74233
G1 X80.784 Y92.274 E24.25039
G1 X80.784 Y92.628 E24.26147
G1 X92.628 Y80.784 E24.78520
G1 X92.983 Y80.784 E24.79628
G1 X80.784 Y92.983 E25.33569
G1 X80.784 Y93.337 E25.34677
G1 X93.337 Y80.784 E25.90186
G1 X93.692 Y80.784 E25.91294
G1 X80.784 Y93.692 E26.48369
G1 X80.784 Y94.046 E26.49478
G1 X94.046 Y80.784 E27.08121
G1 X94.401 Y80.784 E27.09229
G1 X80.784 Y94.401 E27.69440
G1 X80.784 Y94.755 E27.70548
G1 X94.755 Y80.784 E28.32326
G1 X95.110 Y80.784 E28.33434
G1 X80.784 Y95.110 E28.96780
G1 X80.784 Y95.464 E28.97888
G1 X95.464 Y80.784 E29.62801
G1 X95.819 Y80.784 E29.63910
G1 X80.784 Y95.819 E30.30390
G1 X80.784 Y96.174 E30.31498
G1 X96.174 Y80.784 E30.99546
G1 X96.528 Y80.784 E31.00655
G1 X80.784 Y96.528 E31.70270
G1 X80.784 Y96.883 E31.71378
G1 X96.883 Y80.784 E32.42561
G1 X97.237 Y80.784 E32.43670
G1 X80.784 Y97.237 E33.16420
G1 X80.784 Y97.592 E33.17528
G1 X97.592 Y80.784 E33.91846
G1 X97.946 Y80.784 E33.92954
G1 X80.784 Y97.946 E34.68840
G1 X80.784 Y98.301 E34.69948
G1 X98.301 Y80.784 E35.47401
G1 X98.655 Y80.784 E35.48509
G1 X80.784 Y98.655 E36.27529
G1 X80.784 Y99.010 E36.28638
G1 X99.010 Y80.784 E37.09225
G1 X99.364 Y80.784 E37.10334
G1 X80.784 Y99.364 E37.92489
G1 X80.784 Y99.719 E37.93597
G1 X99.719 Y80.784 E38.77320
G1 X100.073 Y80.784 E38.78428
G1 X80.784 Y100.073 E39.63718
G1 X80.784 Y100.428 E39.64827
G1 X100.428 Y80.784 E40.51684
G1 X100.782 Y80.784 E40.52793
G1 X80.784 Y100.782 E41.41218
G1 X80.784 Y101.137 E41.42326
G1 X101.137 Y80.784 E42.32319
G1 X101.491 Y80.784 E42.33427
G1 X80.784 Y101.491 E43.24987
G1 X80.784 Y101.846 E43.26096
G1 X101.846 Y80.784 E44.19223
G1 X102.200 Y80.784 E44.20331
G1 X80.784 Y102.200 E45.15026
G1 X80.784 Y102.555 E45.16135
G1 X102.555 Y80.784 E46.12397
G1 X102.909 Y80.784 E46.13506
G1 X80.784 Y102.909 E47.11335
G1 X80.784 Y103.264 E47.12444
G1 X103.264 Y80.784 E48.11841
G1 X103.618 Y80.784 E48.12950
G1 X80.784 Y103.618 E49.13915
G1 X80.784 Y103.973 E49.15023
G1 X103.973 Y80.784 E50.17555
G1 X104.327 Y80.784 E50.18664
G1 X80.784 Y104.327 E51.22763
G1 X80.784 Y104.682 E51.23872
G1 X104.682 Y80.784 E52.29539
G1 X105.036 Y80.784 E52.30647
G1 X80.784 Y105.036 E53.37882
G1 X80.784 Y105.391 E53.38991
G1 X105.391 Y80.784 E54.47793
G1 X105.745 Y80.784 E54.48901
G1 X80.784 Y105.745 E55.59271
G1 X80.784 Y106.100 E55.60379
G1 X106.100 Y80.784 E56.72317
G1 X106.454 Y80.784 E56.73425
G1 X80.784 Y106.454 E57.86930
G1 X80.784 Y106.809 E57.88038
G1 X106.809 Y80.784 E59.03110
G1 X107.163 Y80.784 E59.04219
G1 X80.784 Y107.163 E60.20858
G1 X80.784 Y107.518 E60.21967
G1 X107.518 Y80.784 E61.40174
G1 X107.872 Y80.784 E61.41282
G1 X80.784 Y107.872 E62.61057
G1 X80.784 Y108.227 E62.62165
G1 X108.227 Y80.784 E63.83507
G1 X108.581 Y80.784 E63.84615
G1 X80.784 Y108.581 E65.07525
G1 X80.784 Y108.936 E65.08633
G1 X108.936 Y80.784 E66.33110
G1 X109.290 Y80.784 E66.34219
G1 X80.784 Y109.290 E67.60263
G1 X80.784 Y109.645 E67.61372
G1 X109.645 Y80.784 E68.88984
G1 X109.999 Y80.784 E68.90092
G1 X80.784 Y109.999 E70.19271
G1 X80.784 Y110.354 E70.20380
G1 X110.354 Y80.784 E71.51127
G1 X110.708 Y80.784 E71.52235
G1 X80.784 Y110.708 E72.84550
G1 X80.784 Y111.063 E72.85658
G1 X111.063 Y80.784 E74.19540
G1 X111.417 Y80.784 E74.20648
G1 X80.784 Y111.417 E75.56097
G1 X80.784 Y111.772 E75.57206
G1 X111.772 Y80.784 E76.94223
G1 X112.126 Y80.784 E76.95331
G1 X80.784 Y112.126 E78.33915
G1 X80.784 Y112.481 E78.35024
G1 X112.481 Y80.784 E79.75176
G1 X112.835 Y80.784 E79.76284
