; generated by Slic3r 1.2.9 on 2021-12-01 at 20:15:57

; external perimeters extrusion width = 0.30mm
; perimeters extrusion width = 0.31mm
; infill extrusion width = 0.31mm
; solid infill extrusion width = 0.31mm
; top infill extrusion width = 0.31mm
; support material extrusion width = 0.30mm

M190 S50 ; set bed temperature
M104 S230 ; set temperature
G28 ; home all axes
G1 Z5 F5000 ; lift nozzle
G1 Z20           ; levanta struder
G1 Y20 X20   ;  dezplaza x e y para no tocar el tornoillo de la 

M109 S230 ; wait for temperature to be reached
G21 ; set units to millimeters
G90 ; use absolute coordinates
M82 ; use absolute distances for extrusion
G92 E0
M106 S89.25
G1 E-1.00000 F1800.00000
G92 E0
G1 Z0.300 F7800.000
G1 X58.190 Y32.908 F7800.000
G1 E1.00000 F1800.00000
G1 X59.550 Y31.081 E1.15217 F1080.000
G1 X61.454 Y29.831 E1.30434
G1 X64.033 Y29.301 E1.48020
G1 X70.024 Y29.301 E1.88046
G1 X70.869 Y29.356 E1.93700
G1 X137.345 Y38.019 E6.41552 F1080.000
G1 X139.517 Y38.703 E6.56769
G1 X141.324 Y40.090 E6.71986
G1 X142.544 Y42.014 E6.87203
G1 X143.036 Y44.500 E7.04135
G1 X143.036 Y155.500 E14.45675
G1 X142.639 Y157.743 E14.60892
G1 X141.448 Y159.770 E14.76601
G1 X134.039 Y168.354 E15.52348
G1 X132.273 Y169.792 E15.67565
G1 X129.092 Y170.619 E15.89523
G1 X66.853 Y170.612 E20.05309
G1 X66.590 Y170.599 E20.07072
G1 X64.369 Y170.091 E20.22289
G1 X62.458 Y168.852 E20.37507
G1 X60.842 Y166.490 E20.56624
G1 X57.428 Y157.918 E21.18264
G1 X56.964 Y155.539 E21.34456
G1 X56.372 Y57.246 E27.91123
G1 X56.372 Y38.080 E29.19159
G1 X57.065 Y35.152 E29.39262
G1 X58.170 Y32.948 E29.55729
G1 X61.589 Y34.662 F7800.000
G1 X62.057 Y33.729 E29.62700 F1080.000
G1 X63.952 Y33.100 E29.76039
G1 X64.199 Y33.224 E29.77889
G1 X64.399 Y33.243 E29.79230
G1 X64.810 Y33.126 E29.82084
G1 X69.696 Y33.126 E30.14723
G1 X70.165 Y33.081 E30.17871
G1 X72.408 Y33.627 E30.33292
G1 X73.259 Y34.326 E30.40649 F1080.000
G1 X73.843 Y35.588 E30.49939
G1 X73.827 Y36.689 E30.57296
G1 X73.536 Y37.268 E30.61623
G1 X73.521 Y37.480 E30.63047
G1 X73.962 Y38.809 E30.72397
G1 X73.536 Y39.659 E30.78749
G1 X73.521 Y39.871 E30.80172
G1 X73.962 Y41.199 E30.89523
G1 X73.771 Y41.581 E30.92376
G1 X74.085 Y42.090 E30.96368
G1 X137.498 Y42.090 E35.20004
G1 X138.910 Y43.502 E35.33343
G1 X138.910 Y156.498 E42.88223
G1 X137.498 Y157.910 E43.01562
G1 X132.424 Y157.910 E43.35461
G1 X132.165 Y158.070 E43.37492
G1 X131.999 Y158.402 E43.39972
G1 X131.984 Y158.614 E43.41396
G1 X132.055 Y158.829 E43.42907
G1 X131.999 Y158.941 E43.43742
G1 X131.984 Y159.153 E43.45166
G1 X132.055 Y159.368 E43.46677
G1 X131.999 Y159.480 E43.47512
G1 X131.984 Y159.692 E43.48936
G1 X132.055 Y159.907 E43.50447
G1 X131.999 Y160.019 E43.51282
G1 X131.984 Y160.231 E43.52705
G1 X132.055 Y160.446 E43.54217
G1 X131.999 Y160.558 E43.55052
G1 X131.984 Y160.770 E43.56475
G1 X132.055 Y160.985 E43.57987
G1 X131.999 Y161.097 E43.58822
G1 X131.984 Y161.309 E43.60245
G1 X132.055 Y161.524 E43.61757
G1 X131.999 Y161.636 E43.62592
G1 X131.984 Y161.848 E43.64015
G1 X132.055 Y162.063 E43.65527
G1 X131.999 Y162.175 E43.66362
G1 X131.984 Y162.387 E43.67785
G1 X132.055 Y162.602 E43.69296
G1 X131.999 Y162.714 E43.70132
G1 X131.984 Y162.926 E43.71555
G1 X132.055 Y163.141 E43.73066
G1 X131.999 Y163.253 E43.73902
G1 X131.984 Y163.465 E43.75325
G1 X132.055 Y163.680 E43.76836
G1 X132.029 Y163.732 E43.77229
G1 X132.003 Y163.900 E43.78361
G1 X132.055 Y164.218 E43.80515
G1 X131.067 Y166.190 E43.95252
G1 X129.908 Y166.575 E44.03411
G1 X129.168 Y166.951 E44.08954
G1 X128.131 Y166.794 E44.15961
G1 X123.994 Y166.794 E44.43600
G1 X123.875 Y166.821 E44.44417
G1 X123.648 Y166.932 E44.46102
G1 X121.603 Y166.525 E44.60033
G1 X120.526 Y165.304 E44.70909
G1 X120.403 Y163.590 E44.82384
G1 X120.421 Y163.312 E44.84251
G1 X120.408 Y163.209 E44.84939
G1 X120.251 Y162.738 E44.88260
G1 X120.307 Y162.626 E44.89095
G1 X120.322 Y162.413 E44.90518
G1 X120.251 Y162.199 E44.92030
G1 X120.307 Y162.087 E44.92865
G1 X120.322 Y161.874 E44.94288
G1 X120.251 Y161.660 E44.95800
G1 X120.307 Y161.548 E44.96635
G1 X120.322 Y161.336 E44.98058
G1 X120.251 Y161.121 E44.99570
G1 X120.307 Y161.009 E45.00405
G1 X120.322 Y160.797 E45.01828
G1 X120.251 Y160.582 E45.03339
G1 X120.307 Y160.470 E45.04175
G1 X120.322 Y160.258 E45.05598
G1 X120.251 Y160.043 E45.07109
G1 X120.307 Y159.931 E45.07945
G1 X120.322 Y159.719 E45.09368
G1 X120.251 Y159.504 E45.10879
G1 X120.307 Y159.392 E45.11715
G1 X120.322 Y159.180 E45.13138
G1 X120.251 Y158.965 E45.14649
G1 X120.307 Y158.853 E45.15485
G1 X120.322 Y158.641 E45.16908
G1 X120.147 Y158.113 E45.20624
G1 X119.866 Y157.910 E45.22936
G1 X75.970 Y157.910 E48.16189
G1 X75.656 Y158.224 E48.19153
G1 X75.656 Y163.216 E48.52505
G1 X75.817 Y164.215 E48.59259
G1 X74.826 Y166.192 E48.74035
G1 X73.674 Y166.575 E48.82148
G1 X72.940 Y166.952 E48.87660
G1 X71.882 Y166.795 E48.94803
G1 X67.753 Y166.795 E49.22387
G1 X67.634 Y166.823 E49.23205
G1 X67.407 Y166.934 E49.24889
G1 X65.362 Y166.526 E49.38821
G1 X64.285 Y165.305 E49.49697
G1 X64.211 Y164.264 E49.56668
G1 X64.170 Y164.160 E49.57418
G1 X64.170 Y158.224 E49.97072
G1 X63.856 Y157.910 E50.00036
G1 X62.502 Y157.910 E50.09087
G1 X61.090 Y156.498 E50.22426
G1 X61.090 Y59.170 E56.72634
G1 X60.930 Y58.911 E56.74665
G1 X60.667 Y58.779 E56.76629
G1 X60.038 Y56.884 E56.89968
G1 X61.061 Y54.843 E57.05224
G1 X61.090 Y54.721 E57.06059
G1 X61.090 Y45.732 E57.66112
G1 X61.072 Y45.635 E57.66772
G1 X60.266 Y43.542 E57.81756
G1 X60.186 Y43.045 E57.85118
G1 X60.216 Y42.416 E57.89326
G1 X60.347 Y41.917 E57.92772
G1 X60.295 Y41.670 E57.94459
G1 X60.198 Y41.546 E57.95510
G1 X60.198 Y37.905 E58.19835
G1 X60.230 Y37.627 E58.21708
G1 X60.311 Y37.286 E58.24048
G1 X60.407 Y37.022 E58.25920
G1 X61.569 Y34.702 E58.43257
G1 X62.048 Y34.942 F7800.000
G1 X62.436 Y34.168 E58.49045 F1080.000
G1 X63.910 Y33.678 E58.59420
G1 X64.145 Y33.796 E58.61178
G1 X64.345 Y33.815 E58.62520
G1 X64.885 Y33.662 E58.66266
G1 X69.542 Y33.662 E58.97380
G1 X69.604 Y33.675 E58.97801
G1 X70.127 Y33.623 E59.01310
G1 X72.163 Y34.118 E59.15307 F1080.000
G1 X72.824 Y34.662 E59.21029
G1 X73.306 Y35.702 E59.28684
G1 X73.293 Y36.558 E59.34407
G1 X72.958 Y37.226 E59.39398
G1 X72.943 Y37.439 E59.40822
G1 X73.384 Y38.767 E59.50172
G1 X72.958 Y39.617 E59.56524
G1 X72.943 Y39.830 E59.57947
G1 X73.384 Y41.158 E59.67298
G1 X73.045 Y41.834 E59.72353
G1 X73.106 Y42.183 E59.74715
G1 X73.200 Y42.272 E59.75584
G1 X73.218 Y42.374 E59.76275
G1 X73.517 Y42.625 E59.78883
G1 X137.277 Y42.625 E64.04833
G1 X138.375 Y43.723 E64.15208
G1 X138.375 Y156.277 E71.67123
G1 X137.277 Y157.375 E71.77498
G1 X131.823 Y157.375 E72.13928
G1 X131.565 Y157.534 E72.15959
G1 X131.421 Y157.821 E72.18103
G1 X131.406 Y158.034 E72.19527
G1 X131.477 Y158.249 E72.21038
G1 X131.421 Y158.360 E72.21873
G1 X131.406 Y158.573 E72.23297
G1 X131.477 Y158.787 E72.24808
G1 X131.421 Y158.899 E72.25643
G1 X131.406 Y159.112 E72.27067
G1 X131.477 Y159.326 E72.28578
G1 X131.421 Y159.438 E72.29413
G1 X131.406 Y159.651 E72.30837
G1 X131.477 Y159.865 E72.32348
G1 X131.421 Y159.977 E72.33183
G1 X131.406 Y160.190 E72.34607
G1 X131.477 Y160.404 E72.36118
G1 X131.421 Y160.516 E72.36953
G1 X131.406 Y160.729 E72.38377
G1 X131.477 Y160.943 E72.39888
G1 X131.421 Y161.055 E72.40723
G1 X131.406 Y161.268 E72.42147
G1 X131.477 Y161.482 E72.43658
G1 X131.421 Y161.594 E72.44493
G1 X131.406 Y161.807 E72.45916
G1 X131.477 Y162.021 E72.47428
G1 X131.421 Y162.133 E72.48263
G1 X131.406 Y162.346 E72.49686
G1 X131.477 Y162.560 E72.51198
G1 X131.421 Y162.672 E72.52033
G1 X131.406 Y162.885 E72.53456
G1 X131.477 Y163.099 E72.54968
G1 X131.421 Y163.211 E72.55803
G1 X131.406 Y163.424 E72.57226
G1 X131.477 Y163.638 E72.58738
G1 X131.447 Y163.815 E72.59937
G1 X131.499 Y164.133 E72.62091
G1 X130.688 Y165.752 E72.74186
G1 X129.700 Y166.080 E72.81137
G1 X129.078 Y166.395 E72.85793
G1 X128.172 Y166.258 E72.91915
G1 X123.870 Y166.258 E73.20657
G1 X123.751 Y166.286 E73.21474
G1 X123.575 Y166.371 E73.22779
G1 X121.885 Y166.035 E73.34293
G1 X121.047 Y165.085 E73.42752
G1 X120.940 Y163.588 E73.52779
G1 X120.964 Y163.298 E73.54725
G1 X120.955 Y163.159 E73.55656
G1 X120.829 Y162.779 E73.58326
G1 X120.885 Y162.668 E73.59161
G1 X120.900 Y162.455 E73.60584
G1 X120.829 Y162.240 E73.62096
G1 X120.885 Y162.129 E73.62931
G1 X120.900 Y161.916 E73.64354
G1 X120.829 Y161.701 E73.65865
G1 X120.885 Y161.590 E73.66701
G1 X120.900 Y161.377 E73.68124
G1 X120.829 Y161.162 E73.69635
G1 X120.885 Y161.051 E73.70471
G1 X120.900 Y160.838 E73.71894
G1 X120.829 Y160.624 E73.73405
G1 X120.885 Y160.512 E73.74241
G1 X120.900 Y160.299 E73.75664
G1 X120.829 Y160.085 E73.77175
G1 X120.885 Y159.973 E73.78010
G1 X120.900 Y159.760 E73.79434
G1 X120.829 Y159.546 E73.80945
G1 X120.885 Y159.434 E73.81780
G1 X120.900 Y159.221 E73.83204
G1 X120.829 Y159.007 E73.84715
G1 X120.885 Y158.895 E73.85550
G1 X120.900 Y158.682 E73.86974
G1 X120.829 Y158.468 E73.88485
G1 X120.885 Y158.356 E73.89320
G1 X120.900 Y158.143 E73.90744
G1 X120.712 Y157.577 E73.94729
G1 X120.432 Y157.375 E73.97041
G1 X75.434 Y157.375 E76.97650
G1 X75.120 Y157.688 E77.00615
G1 X75.120 Y163.260 E77.37839
G1 X75.260 Y164.130 E77.43724
G1 X74.447 Y165.753 E77.55855
G1 X73.465 Y166.080 E77.62768
G1 X72.848 Y166.396 E77.67401
G1 X71.922 Y166.260 E77.73649
G1 X67.629 Y166.260 E78.02330
G1 X67.510 Y166.287 E78.03147
G1 X67.335 Y166.373 E78.04451
G1 X65.644 Y166.036 E78.15966
G1 X64.807 Y165.087 E78.24425
G1 X64.733 Y164.062 E78.31291
G1 X64.706 Y163.991 E78.31798
G1 X64.699 Y163.590 E78.34479
G1 X64.706 Y157.688 E78.73902
G1 X64.392 Y157.375 E78.76866
G1 X62.723 Y157.375 E78.88012
G1 X61.625 Y156.277 E78.98387
G1 X61.625 Y58.839 E85.49323
G1 X61.466 Y58.580 E85.51354
G1 X61.106 Y58.400 E85.54044
G1 X60.616 Y56.926 E85.64419
G1 X61.597 Y54.970 E85.79040
G1 X61.625 Y54.848 E85.79875
G1 X61.625 Y45.632 E86.41439
G1 X61.607 Y45.535 E86.42099
G1 X60.786 Y43.402 E86.57374
G1 X60.723 Y43.015 E86.59989
G1 X60.748 Y42.498 E86.63451
G1 X60.848 Y42.119 E86.66066
G1 X60.953 Y41.908 E86.67639
G1 X60.921 Y41.598 E86.69724
G1 X60.733 Y41.360 E86.71750
G1 X60.733 Y37.936 E86.94623
G1 X60.759 Y37.720 E86.96080
G1 X60.825 Y37.439 E86.98004
G1 X60.899 Y37.235 E86.99460
G1 X62.028 Y34.983 E87.16287
G1 X62.507 Y35.223 F7800.000
G1 X62.816 Y34.606 E87.20895 F1080.000
G1 X63.869 Y34.256 E87.28305
G1 X64.168 Y34.407 E87.30546
G1 X64.447 Y34.394 E87.32407
G1 X64.601 Y34.299 E87.33617
G1 X64.959 Y34.197 E87.36107
G1 X66.945 Y34.197 E87.49370
G1 X66.983 Y34.218 E87.49661
G1 X67.194 Y34.243 E87.51084
G1 X67.356 Y34.197 E87.52206
G1 X69.362 Y34.197 E87.65605
G1 X69.489 Y34.224 E87.66477
G1 X70.089 Y34.165 E87.70499
G1 X71.917 Y34.610 E87.83071
G1 X72.390 Y34.998 E87.87158 F1080.000
G1 X72.769 Y35.816 E87.93178
G1 X72.759 Y36.428 E87.97266
G1 X72.380 Y37.185 E88.02922
G1 X72.364 Y37.397 E88.04345
G1 X72.806 Y38.725 E88.13696
G1 X72.380 Y39.575 E88.20047
G1 X72.364 Y39.788 E88.21471
G1 X72.806 Y41.116 E88.30821
G1 X72.388 Y41.949 E88.37045
G1 X72.449 Y42.297 E88.39406
G1 X72.703 Y42.538 E88.41745
G1 X72.768 Y42.910 E88.44263
G1 X73.067 Y43.161 E88.46871
G1 X137.055 Y43.161 E92.74346
G1 X137.839 Y43.945 E92.81757
G1 X137.839 Y156.055 E100.30708
G1 X137.055 Y156.839 E100.38118
G1 X131.223 Y156.839 E100.77080
G1 X130.964 Y156.999 E100.79111
G1 X130.843 Y157.241 E100.80919
G1 X130.827 Y157.453 E100.82342
G1 X130.899 Y157.668 E100.83854
G1 X130.843 Y157.780 E100.84689
G1 X130.827 Y157.992 E100.86112
G1 X130.899 Y158.207 E100.87624
G1 X130.843 Y158.319 E100.88459
G1 X130.827 Y158.531 E100.89882
G1 X130.899 Y158.746 E100.91394
G1 X130.843 Y158.858 E100.92229
G1 X130.827 Y159.070 E100.93652
G1 X130.899 Y159.285 E100.95164
G1 X130.843 Y159.397 E100.95999
G1 X130.827 Y159.609 E100.97422
G1 X130.899 Y159.824 E100.98933
G1 X130.843 Y159.936 E100.99769
G1 X130.827 Y160.148 E101.01192
G1 X130.899 Y160.363 E101.02703
G1 X130.843 Y160.475 E101.03539
G1 X130.827 Y160.687 E101.04962
G1 X130.899 Y160.902 E101.06473
G1 X130.843 Y161.013 E101.07309
G1 X130.827 Y161.226 E101.08732
G1 X130.899 Y161.441 E101.10243
G1 X130.843 Y161.552 E101.11079
G1 X130.827 Y161.765 E101.12502
G1 X130.899 Y161.980 E101.14013
G1 X130.843 Y162.091 E101.14848
G1 X130.827 Y162.304 E101.16272
G1 X130.899 Y162.519 E101.17783
G1 X130.843 Y162.630 E101.18618
G1 X130.827 Y162.843 E101.20042
G1 X130.899 Y163.058 E101.21553
G1 X130.843 Y163.169 E101.22388
G1 X130.827 Y163.382 E101.23812
G1 X130.907 Y163.621 E101.25493
G1 X130.890 Y163.731 E101.26235
G1 X130.942 Y164.049 E101.28389
G1 X130.308 Y165.314 E101.37841
G1 X129.492 Y165.585 E101.43584
G1 X128.989 Y165.839 E101.47354
G1 X128.214 Y165.722 E101.52591
G1 X123.746 Y165.722 E101.82436
G1 X123.627 Y165.750 E101.83253
G1 X123.503 Y165.811 E101.84177
G1 X122.167 Y165.545 E101.93275
G1 X121.569 Y164.866 E101.99317
G1 X121.477 Y163.586 E102.07895
G1 X121.517 Y163.263 E102.10065
G1 X121.508 Y163.124 E102.10996
G1 X121.407 Y162.821 E102.13130
G1 X121.463 Y162.709 E102.13965
G1 X121.479 Y162.497 E102.15389
G1 X121.407 Y162.282 E102.16900
G1 X121.463 Y162.170 E102.17735
G1 X121.479 Y161.958 E102.19159
G1 X121.407 Y161.743 E102.20670
G1 X121.463 Y161.631 E102.21505
G1 X121.479 Y161.419 E102.22929
G1 X121.407 Y161.204 E102.24440
G1 X121.463 Y161.092 E102.25275
G1 X121.479 Y160.880 E102.26699
G1 X121.407 Y160.665 E102.28210
G1 X121.463 Y160.553 E102.29045
G1 X121.479 Y160.341 E102.30469
G1 X121.407 Y160.126 E102.31980
G1 X121.463 Y160.014 E102.32815
G1 X121.479 Y159.802 E102.34239
G1 X121.407 Y159.587 E102.35750
G1 X121.463 Y159.475 E102.36585
G1 X121.479 Y159.263 E102.38008
G1 X121.407 Y159.048 E102.39520
G1 X121.463 Y158.936 E102.40355
G1 X121.479 Y158.724 E102.41778
G1 X121.407 Y158.509 E102.43290
G1 X121.463 Y158.398 E102.44125
G1 X121.479 Y158.185 E102.45548
G1 X121.407 Y157.970 E102.47060
G1 X121.463 Y157.859 E102.47895
G1 X121.479 Y157.646 E102.49318
G1 X121.407 Y157.431 E102.50830
G1 X121.449 Y157.348 E102.51456
G1 X121.135 Y156.839 E102.55448
G1 X74.898 Y156.839 E105.64337
G1 X74.585 Y157.153 E105.67301
G1 X74.585 Y163.304 E106.08397
G1 X74.704 Y164.046 E106.13413
G1 X74.067 Y165.315 E106.22899
G1 X73.256 Y165.585 E106.28613
G1 X72.756 Y165.841 E106.32366
G1 X71.963 Y165.724 E106.37720
G1 X67.505 Y165.724 E106.67497
G1 X67.386 Y165.751 E106.68314
G1 X67.262 Y165.812 E106.69238
G1 X65.926 Y165.546 E106.78336
G1 X65.328 Y164.868 E106.84378
G1 X65.236 Y163.587 E106.92957
G1 X65.241 Y157.153 E107.35942
G1 X64.928 Y156.839 E107.38906
G1 X62.945 Y156.839 E107.52149
G1 X62.161 Y156.055 E107.59559
G1 X62.161 Y58.508 E114.11221
G1 X62.001 Y58.250 E114.13253
G1 X61.544 Y58.020 E114.16670
G1 X61.194 Y56.968 E114.24080
G1 X61.925 Y55.509 E114.34980
G1 X61.958 Y55.498 E114.35214
G1 X62.161 Y55.217 E114.37526
G1 X62.161 Y45.533 E115.02225
G1 X62.143 Y45.436 E115.02884
G1 X61.305 Y43.261 E115.18451
G1 X61.261 Y42.985 E115.20319
G1 X61.281 Y42.579 E115.23033
G1 X61.352 Y42.309 E115.24901
G1 X61.585 Y41.843 E115.28379
G1 X61.553 Y41.533 E115.30464
G1 X61.269 Y41.174 E115.33524
G1 X61.269 Y37.967 E115.54945
G1 X61.287 Y37.813 E115.55985
G1 X61.392 Y37.447 E115.58529
G1 X62.487 Y35.263 E115.74848
G1 X62.966 Y35.503 F7800.000
G1 X63.195 Y35.044 E115.78274 F1080.000
G1 X63.827 Y34.835 E115.82720
G1 X64.195 Y35.019 E115.85475
G1 X64.474 Y35.007 E115.87336
G1 X64.819 Y34.794 E115.90044
G1 X65.034 Y34.733 E115.91538
G1 X66.805 Y34.733 E116.03373
G1 X66.915 Y34.794 E116.04215
G1 X67.127 Y34.819 E116.05638
G1 X67.430 Y34.733 E116.07745
G1 X69.202 Y34.733 E116.19579
G1 X69.338 Y34.809 E116.20623
G1 X69.596 Y34.819 E116.22342
G1 X69.779 Y34.734 E116.23692
G1 X70.050 Y34.707 E116.25514
