; generated by Slic3r 1.2.9 on 2021-12-06 at 19:40:51

; external perimeters extrusion width = 0.30mm
; perimeters extrusion width = 0.31mm
; infill extrusion width = 0.31mm
; solid infill extrusion width = 0.31mm
; top infill extrusion width = 0.31mm
; support material extrusion width = 0.30mm

M190 S50 ; set bed temperature
M104 S230 ; set temperature
G28 ; home all axes
G1 Z5 F5000 ; lift nozzle
G1 Z20           ; levanta struder
G1 Y20 X20   ;  dezplaza x e y para no tocar el tornoillo de la 

M109 S230 ; wait for temperature to be reached
G21 ; set units to millimeters
G90 ; use absolute coordinates
M82 ; use absolute distances for extrusion
G92 E0
M106 S99.45
G1 E-1.00000 F1800.00000
G92 E0
G1 Z0.300 F7800.000
G1 X85.004 Y91.287 F7800.000
G1 E1.00000 F1800.00000
G1 X86.753 Y89.828 E1.15217 F1080.000
G1 X90.000 Y88.964 E1.37660
G1 X110.000 Y88.964 E2.71271
G1 X112.243 Y89.361 E2.86488
G1 X114.213 Y90.504 E3.01705 F1080.000
G1 X115.672 Y92.253 E3.16922
G1 X116.536 Y95.500 E3.39365
G1 X116.536 Y104.500 E3.99490
G1 X116.139 Y106.743 E4.14707
G1 X114.996 Y108.713 E4.29924
G1 X113.247 Y110.172 E4.45141
G1 X110.000 Y111.036 E4.67584
G1 X90.000 Y111.036 E6.01195
G1 X87.757 Y110.639 E6.16412
G1 X85.787 Y109.496 E6.31629
G1 X84.328 Y107.747 E6.46846
G1 X83.464 Y104.500 E6.69289
G1 X83.464 Y95.500 E7.29414
G1 X83.861 Y93.257 E7.44631
G1 X84.981 Y91.325 E7.59548
G1 E6.59548 F1800.00000
G92 E0
G1 X87.874 Y94.218 F7800.000
G1 E1.00000 F1800.00000
G1 X89.002 Y93.090 E1.10657 F1080.000
G1 X110.998 Y93.090 E2.57607
G1 X112.410 Y94.502 E2.70946
G1 X112.410 Y105.498 E3.44411 F1080.000
G1 X110.998 Y106.910 E3.57750
G1 X89.002 Y106.910 E5.04700
G1 X87.590 Y105.498 E5.18040
G1 X87.590 Y94.502 E5.91504
G1 X87.842 Y94.250 E5.93885
G1 X88.221 Y94.628 F7800.000
G1 X89.223 Y93.625 E6.03361 F1080.000
G1 X110.777 Y93.625 E7.47347
G1 X111.875 Y94.723 E7.57722 F1080.000
G1 X111.875 Y105.277 E8.28222
G1 X110.777 Y106.375 E8.38597
G1 X89.223 Y106.375 E9.82583
G1 X88.125 Y105.277 E9.92958
G1 X88.125 Y94.723 E10.63458
G1 X88.189 Y94.660 E10.64057
G1 X88.661 Y94.945 F7800.000
G1 X89.445 Y94.161 E10.71467 F1080.000
G1 X110.555 Y94.161 E12.12489
G1 X111.339 Y94.945 E12.19900
G1 X111.339 Y105.055 E12.87435 F1080.000
G1 X110.555 Y105.839 E12.94846
G1 X89.445 Y105.839 E14.35868
G1 X88.661 Y105.055 E14.43278
G1 X88.661 Y94.990 E15.10513
G1 X89.197 Y95.167 F7800.000
G1 X89.667 Y94.697 E15.14960 F1080.000
G1 X110.333 Y94.697 E16.53017
G1 X110.803 Y95.167 E16.57463 F1080.000
G1 X110.803 Y104.833 E17.22035
G1 X110.333 Y105.303 E17.26481
G1 X89.667 Y105.303 E18.64539
G1 X89.197 Y104.833 E18.68985
G1 X89.197 Y95.212 E19.33256
G1 X89.732 Y95.389 F7800.000
G1 X89.889 Y95.232 E19.34738 F1080.000
G1 X110.111 Y95.232 E20.69831
G1 X110.268 Y95.389 E20.71313
G1 X110.268 Y104.611 E21.32920 F1080.000
G1 X110.111 Y104.768 E21.34402
G1 X89.889 Y104.768 E22.69495
G1 X89.732 Y104.611 E22.70977
G1 X89.732 Y95.434 E23.32284
G1 X90.300 Y95.800 F7800.000
G1 X109.700 Y95.800 E24.61886 F378.000
G1 X109.700 Y104.200 E25.18003
G1 X90.300 Y104.200 E26.47605 F378.000
G1 X90.300 Y95.845 E27.03421
G1 X90.560 Y95.950 F7800.000
G1 X90.836 Y96.336 F7800.000
G1 X109.164 Y96.336 E28.25867 F540.000
G1 X109.164 Y103.664 E28.74827
G1 X90.836 Y103.664 E29.97273 F540.000
G1 X90.836 Y96.381 E30.45933
G1 X92.503 Y103.129 F7800.000
G1 X91.371 Y103.129 E30.53492 F540.000
G1 X91.371 Y96.871 E30.95296
G1 X108.629 Y96.871 E32.10586
G1 X108.629 Y103.129 E32.52389
G1 X92.548 Y103.129 E33.59819 F540.000
G1 X91.693 Y102.540 F7800.000
G1 X91.960 Y102.807 E33.62401 F1080.000
G1 X92.735 Y102.807 E33.67695
G1 X91.693 Y101.765 E33.77765
G1 X91.693 Y100.990 E33.83059
G1 X93.510 Y102.807 E34.00616
G1 X94.284 Y102.807 E34.05910
G1 X91.693 Y100.216 E34.30954
G1 X91.693 Y99.441 E34.36248
G1 X95.059 Y102.807 E34.68779
G1 X95.834 Y102.807 E34.74074
G1 X91.693 Y98.666 E35.14092
G1 X91.693 Y97.891 E35.19386
G1 X96.609 Y102.807 E35.66892
G1 X97.384 Y102.807 E35.72186
G1 X91.769 Y97.193 E36.26440
G1 X92.544 Y97.193 E36.31734
G1 X98.158 Y102.807 E36.85988
G1 X98.933 Y102.807 E36.91282
G1 X93.319 Y97.193 E37.45536
G1 X94.094 Y97.193 E37.50830
G1 X99.708 Y102.807 E38.05084
G1 X100.483 Y102.807 E38.10378
G1 X94.868 Y97.193 E38.64632
G1 X95.643 Y97.193 E38.69926
G1 X101.258 Y102.807 E39.24180
G1 X102.032 Y102.807 E39.29474
G1 X96.418 Y97.193 E39.83728
G1 X97.193 Y97.193 E39.89022
G1 X102.807 Y102.807 E40.43276
G1 X103.582 Y102.807 E40.48570
G1 X97.968 Y97.193 E41.02824
G1 X98.742 Y97.193 E41.08119
G1 X104.357 Y102.807 E41.62372
G1 X105.131 Y102.807 E41.67667
G1 X99.517 Y97.193 E42.21920
G1 X100.292 Y97.193 E42.27215
G1 X105.906 Y102.807 E42.81468
G1 X106.681 Y102.807 E42.86763
G1 X101.067 Y97.193 E43.41016
G1 X101.842 Y97.193 E43.46311
G1 X107.456 Y102.807 E44.00565
G1 X108.231 Y102.807 E44.05859
G1 X102.616 Y97.193 E44.60113
G1 X103.391 Y97.193 E44.65407
G1 X108.307 Y102.109 E45.12913
G1 X108.307 Y101.334 E45.18207
G1 X104.166 Y97.193 E45.58226
G1 X104.941 Y97.193 E45.63520
G1 X108.307 Y100.559 E45.96051
G1 X108.307 Y99.784 E46.01345
G1 X105.716 Y97.193 E46.26390
G1 X106.490 Y97.193 E46.31684
G1 X108.307 Y99.010 E46.49241
G1 X108.307 Y98.235 E46.54535
G1 X107.265 Y97.193 E46.64605
G1 X108.040 Y97.193 E46.69899
G1 X108.307 Y97.460 E46.72482
G1 E45.72482 F1800.00000
G92 E0
G1 Z0.300 F7800.000
M106 S153
G1 Z0.600 F7800.000
G1 X107.918 Y103.856 F7800.000
G1 E1.00000 F1800.00000
G1 X90.644 Y103.856 E1.53997 F948.270
G1 X90.644 Y96.144 E1.78106
G1 X109.356 Y96.144 E2.36598
G1 X109.356 Y103.856 E2.60707
G1 X107.963 Y103.856 E2.65062 F948.270
G1 X107.963 Y104.107 F7800.000
G1 X90.393 Y104.107 E3.19983 F948.270
G1 X90.393 Y95.893 E3.45658
G1 X109.607 Y95.893 E4.05718
G1 X109.607 Y104.107 E4.31393
G1 X108.008 Y104.107 E4.36390 F948.270
G1 X108.008 Y104.350 F7800.000
G1 X90.150 Y104.350 E4.88871 F663.789
G1 X90.150 Y95.650 E5.14439
G1 X109.850 Y95.650 E5.72332
G1 X109.850 Y104.350 E5.97900
G1 X108.053 Y104.350 E6.03181 F663.789
G1 X107.858 Y104.090 F7800.000
G1 X109.070 Y103.716 F7800.000
G1 X109.216 Y103.570 E6.03829 F1896.540
G1 X109.216 Y103.215 E6.04941
G1 X108.715 Y103.716 E6.07163
G1 X108.360 Y103.716 E6.08276
G1 X109.216 Y102.860 E6.12071
G1 X109.216 Y102.505 E6.13183
G1 X108.005 Y103.716 E6.18552
G1 X107.649 Y103.716 E6.19665
G1 X109.216 Y102.149 E6.26607
G1 X109.216 Y101.794 E6.27719
G1 X107.294 Y103.716 E6.36235
G1 X106.939 Y103.716 E6.37348
G1 X109.216 Y101.439 E6.47437
G1 X109.216 Y101.084 E6.48549
G1 X106.584 Y103.716 E6.60212
G1 X106.229 Y103.716 E6.61324
G1 X109.216 Y100.729 E6.74560
G1 X109.216 Y100.373 E6.75673
G1 X105.873 Y103.716 E6.90482
G1 X105.518 Y103.716 E6.91595
G1 X109.216 Y100.018 E7.07978
G1 X109.216 Y99.663 E7.09090
G1 X105.163 Y103.716 E7.27047
G1 X104.808 Y103.716 E7.28159
G1 X109.216 Y99.308 E7.47689
G1 X109.216 Y98.953 E7.48802
G1 X104.453 Y103.716 E7.69905
G1 X104.098 Y103.716 E7.71017
G1 X109.216 Y98.598 E7.93694
G1 X109.216 Y98.242 E7.94807
G1 X103.742 Y103.716 E8.19057
G1 X103.387 Y103.716 E8.20169
G1 X109.216 Y97.887 E8.45993
G1 X109.216 Y97.532 E8.47106
G1 X103.032 Y103.716 E8.74503
G1 X102.677 Y103.716 E8.75615
G1 X109.216 Y97.177 E9.04586
G1 X109.216 Y96.822 E9.05699
G1 X102.322 Y103.716 E9.36243
G1 X101.966 Y103.716 E9.37355
G1 X109.216 Y96.466 E9.69473
G1 X109.044 Y96.284 E9.70260
G1 X101.611 Y103.716 E10.03187
G1 X101.256 Y103.716 E10.04300
G1 X108.689 Y96.284 E10.37228
G1 X108.334 Y96.284 E10.38340
G1 X100.901 Y103.716 E10.71268
G1 X100.546 Y103.716 E10.72380
G1 X107.979 Y96.284 E11.05308
G1 X107.623 Y96.284 E11.06421
G1 X100.191 Y103.716 E11.39348
G1 X99.835 Y103.716 E11.40461
G1 X107.268 Y96.284 E11.73389
G1 X106.913 Y96.284 E11.74501
G1 X99.480 Y103.716 E12.07429
G1 X99.125 Y103.716 E12.08541
G1 X106.558 Y96.284 E12.41469
G1 X106.203 Y96.284 E12.42582
G1 X98.770 Y103.716 E12.75509
G1 X98.415 Y103.716 E12.76622
G1 X105.847 Y96.284 E13.09550
G1 X105.492 Y96.284 E13.10662
G1 X98.059 Y103.716 E13.43590
G1 X97.704 Y103.716 E13.44702
G1 X105.137 Y96.284 E13.77630
G1 X104.782 Y96.284 E13.78743
G1 X97.349 Y103.716 E14.11670
G1 X96.994 Y103.716 E14.12783
G1 X104.427 Y96.284 E14.45711
G1 X104.072 Y96.284 E14.46823
G1 X96.639 Y103.716 E14.79751
G1 X96.284 Y103.716 E14.80863
G1 X103.716 Y96.284 E15.13791
G1 X103.361 Y96.284 E15.14904
G1 X95.928 Y103.716 E15.47831
G1 X95.573 Y103.716 E15.48944
G1 X103.006 Y96.284 E15.81871
G1 X102.651 Y96.284 E15.82984
G1 X95.218 Y103.716 E16.15912
G1 X94.863 Y103.716 E16.17024
G1 X102.296 Y96.284 E16.49952
G1 X101.940 Y96.284 E16.51065
G1 X94.508 Y103.716 E16.83992
G1 X94.152 Y103.716 E16.85105
G1 X101.585 Y96.284 E17.18032
G1 X101.230 Y96.284 E17.19145
G1 X93.797 Y103.716 E17.52073
G1 X93.442 Y103.716 E17.53185
G1 X100.875 Y96.284 E17.86113
G1 X100.520 Y96.284 E17.87226
G1 X93.087 Y103.716 E18.20153
G1 X92.732 Y103.716 E18.21266
G1 X100.165 Y96.284 E18.54193
G1 X99.809 Y96.284 E18.55306
G1 X92.377 Y103.716 E18.88234
G1 X92.021 Y103.716 E18.89346
G1 X99.454 Y96.284 E19.22274
G1 X99.099 Y96.284 E19.23387
G1 X91.666 Y103.716 E19.56314
G1 X91.311 Y103.716 E19.57427
G1 X98.744 Y96.284 E19.90354
G1 X98.389 Y96.284 E19.91467
G1 X90.956 Y103.716 E20.24395
G1 X90.784 Y103.533 E20.25182
G1 X98.033 Y96.284 E20.57299
G1 X97.678 Y96.284 E20.58412
G1 X90.784 Y103.178 E20.88955
G1 X90.784 Y102.823 E20.90068
G1 X97.323 Y96.284 E21.19038
G1 X96.968 Y96.284 E21.20151
G1 X90.784 Y102.468 E21.47548
G1 X90.784 Y102.113 E21.48660
G1 X96.613 Y96.284 E21.74484
G1 X96.258 Y96.284 E21.75596
G1 X90.784 Y101.758 E21.99846
G1 X90.784 Y101.402 E22.00959
G1 X95.902 Y96.284 E22.23635
G1 X95.547 Y96.284 E22.24748
G1 X90.784 Y101.047 E22.45851
G1 X90.784 Y100.692 E22.46964
G1 X95.192 Y96.284 E22.66493
G1 X94.837 Y96.284 E22.67606
G1 X90.784 Y100.337 E22.85562
G1 X90.784 Y99.982 E22.86675
G1 X94.482 Y96.284 E23.03057
G1 X94.126 Y96.284 E23.04170
G1 X90.784 Y99.626 E23.18979
G1 X90.784 Y99.271 E23.20092
G1 X93.771 Y96.284 E23.33327
G1 X93.416 Y96.284 E23.34440
G1 X90.784 Y98.916 E23.46102
G1 X90.784 Y98.561 E23.47215
G1 X93.061 Y96.284 E23.57304
G1 X92.706 Y96.284 E23.58416
G1 X90.784 Y98.206 E23.66932
G1 X90.784 Y97.851 E23.68044
G1 X92.351 Y96.284 E23.74986
G1 X91.995 Y96.284 E23.76099
G1 X90.784 Y97.495 E23.81467
G1 X90.784 Y97.140 E23.82580
G1 X91.640 Y96.284 E23.86375
G1 X91.285 Y96.284 E23.87487
G1 X90.784 Y96.785 E23.89709
G1 X90.784 Y96.430 E23.90821
G1 X90.930 Y96.284 E23.91469
G1 E22.91469 F1800.00000
G92 E0
G1 Z0.900 F7800.000
G1 X90.644 Y97.498 F7800.000
G1 E1.00000 F1800.00000
G1 X90.644 Y96.144 E1.04232 F948.478
G1 X109.356 Y96.144 E1.62725
G1 X109.356 Y103.856 E1.86833
G1 X90.644 Y103.856 E2.45326 F948.478
G1 X90.644 Y97.543 E2.65062
G1 X90.393 Y97.543 F7800.000
G1 X90.393 Y95.893 E2.70218 F948.478
G1 X109.607 Y95.893 E3.30277
G1 X109.607 Y104.107 E3.55952
G1 X90.393 Y104.107 E4.16012 F948.478
G1 X90.393 Y97.588 E4.36390
G1 X90.150 Y97.588 F7800.000
G1 X90.150 Y95.650 E4.42085 F663.935
G1 X109.850 Y95.650 E4.99979
G1 X109.850 Y104.350 E5.25546
G1 X90.150 Y104.350 E5.83440 F663.935
G1 X90.150 Y97.633 E6.03181
G1 X90.410 Y97.438 F7800.000
G1 X90.784 Y103.570 F7800.000
G1 X90.930 Y103.716 E6.03829 F1896.956
G1 X91.285 Y103.716 E6.04941
G1 X90.784 Y103.215 E6.07163
G1 X90.784 Y102.860 E6.08275
G1 X91.640 Y103.716 E6.12070
G1 X91.995 Y103.716 E6.13183
G1 X90.784 Y102.505 E6.18551
G1 X90.784 Y102.149 E6.19664
G1 X92.351 Y103.716 E6.26606
G1 X92.706 Y103.716 E6.27718
G1 X90.784 Y101.794 E6.36234
G1 X90.784 Y101.439 E6.37346
G1 X93.061 Y103.716 E6.47435
G1 X93.416 Y103.716 E6.48548
G1 X90.784 Y101.084 E6.60210
G1 X90.784 Y100.729 E6.61323
G1 X93.771 Y103.716 E6.74558
G1 X94.126 Y103.716 E6.75671
G1 X90.784 Y100.374 E6.90480
G1 X90.784 Y100.018 E6.91593
G1 X94.482 Y103.716 E7.07975
G1 X94.837 Y103.716 E7.09088
G1 X90.784 Y99.663 E7.27044
G1 X90.784 Y99.308 E7.28157
G1 X95.192 Y103.716 E7.47686
G1 X95.547 Y103.716 E7.48799
G1 X90.784 Y98.953 E7.69902
G1 X90.784 Y98.598 E7.71015
G1 X95.902 Y103.716 E7.93691
G1 X96.258 Y103.716 E7.94804
G1 X90.784 Y98.242 E8.19054
G1 X90.784 Y97.887 E8.20166
G1 X96.613 Y103.716 E8.45990
G1 X96.968 Y103.716 E8.47102
G1 X90.784 Y97.532 E8.74499
G1 X90.784 Y97.177 E8.75612
G1 X97.323 Y103.716 E9.04582
G1 X97.678 Y103.716 E9.05695
G1 X90.784 Y96.822 E9.36238
G1 X90.784 Y96.467 E9.37351
G1 X98.033 Y103.716 E9.69468
G1 X98.389 Y103.716 E9.70581
G1 X90.956 Y96.284 E10.03509
G1 X91.311 Y96.284 E10.04621
G1 X98.744 Y103.716 E10.37549
G1 X99.099 Y103.716 E10.38661
G1 X91.666 Y96.284 E10.71589
G1 X92.021 Y96.284 E10.72702
G1 X99.454 Y103.716 E11.05629
G1 X99.809 Y103.716 E11.06742
G1 X92.377 Y96.284 E11.39669
G1 X92.732 Y96.284 E11.40782
G1 X100.165 Y103.716 E11.73710
G1 X100.520 Y103.716 E11.74822
G1 X93.087 Y96.284 E12.07750
G1 X93.442 Y96.284 E12.08863
G1 X100.875 Y103.716 E12.41790
G1 X101.230 Y103.716 E12.42903
G1 X93.797 Y96.284 E12.75830
G1 X94.152 Y96.284 E12.76943
G1 X101.585 Y103.716 E13.09871
G1 X101.940 Y103.716 E13.10983
G1 X94.508 Y96.284 E13.43911
G1 X94.863 Y96.284 E13.45024
G1 X102.296 Y103.716 E13.77951
G1 X102.651 Y103.716 E13.79064
G1 X95.218 Y96.284 E14.11991
G1 X95.573 Y96.284 E14.13104
G1 X103.006 Y103.716 E14.46032
G1 X103.361 Y103.716 E14.47144
G1 X95.928 Y96.284 E14.80072
G1 X96.284 Y96.284 E14.81185
G1 X103.716 Y103.716 E15.14112
G1 X104.072 Y103.716 E15.15225
G1 X96.639 Y96.284 E15.48152
G1 X96.994 Y96.284 E15.49265
G1 X104.427 Y103.716 E15.82193
G1 X104.782 Y103.716 E15.83305
G1 X97.349 Y96.284 E16.16233
G1 X97.704 Y96.284 E16.17346
G1 X105.137 Y103.716 E16.50273
G1 X105.492 Y103.716 E16.51386
G1 X98.059 Y96.284 E16.84313
G1 X98.415 Y96.284 E16.85426
G1 X105.847 Y103.716 E17.18354
G1 X106.203 Y103.716 E17.19466
G1 X98.770 Y96.284 E17.52394
G1 X99.125 Y96.284 E17.53506
G1 X106.558 Y103.716 E17.86434
G1 X106.913 Y103.716 E17.87547
G1 X99.480 Y96.284 E18.20474
G1 X99.835 Y96.284 E18.21587
G1 X107.268 Y103.716 E18.54515
G1 X107.623 Y103.716 E18.55627
G1 X100.191 Y96.284 E18.88555
G1 X100.546 Y96.284 E18.89667
G1 X107.979 Y103.716 E19.22595
G1 X108.334 Y103.716 E19.23708
G1 X100.901 Y96.284 E19.56635
G1 X101.256 Y96.284 E19.57748
G1 X108.689 Y103.716 E19.90676
G1 X109.044 Y103.716 E19.91788
G1 X101.611 Y96.284 E20.24716
G1 X101.966 Y96.284 E20.25828
G1 X109.216 Y103.534 E20.57946
G1 X109.216 Y103.178 E20.59059
G1 X102.322 Y96.284 E20.89603
G1 X102.677 Y96.284 E20.90715
G1 X109.216 Y102.823 E21.19686
G1 X109.216 Y102.468 E21.20798
G1 X103.032 Y96.284 E21.48195
G1 X103.387 Y96.284 E21.49308
G1 X109.216 Y102.113 E21.75132
G1 X109.216 Y101.758 E21.76244
G1 X103.742 Y96.284 E22.00494
G1 X104.098 Y96.284 E22.01607
G1 X109.216 Y101.402 E22.24284
G1 X109.216 Y101.047 E22.25396
G1 X104.453 Y96.284 E22.46499
G1 X104.808 Y96.284 E22.47612
G1 X109.216 Y100.692 E22.67142
G1 X109.216 Y100.337 E22.68254
G1 X105.163 Y96.284 E22.86211
G1 X105.518 Y96.284 E22.87323
G1 X109.216 Y99.982 E23.03706
G1 X109.216 Y99.627 E23.04819
G1 X105.873 Y96.284 E23.19628
G1 X106.229 Y96.284 E23.20741
G1 X109.216 Y99.271 E23.33977
G1 X109.216 Y98.916 E23.35089
G1 X106.584 Y96.284 E23.46752
G1 X106.939 Y96.284 E23.47864
G1 X109.216 Y98.561 E23.57953
G1 X109.216 Y98.206 E23.59066
G1 X107.294 Y96.284 E23.67582
G1 X107.649 Y96.284 E23.68694
G1 X109.216 Y97.851 E23.75636
G1 X109.216 Y97.495 E23.76749
G1 X108.005 Y96.284 E23.82118
G1 X108.360 Y96.284 E23.83230
G1 X109.216 Y97.140 E23.87025
G1 X109.216 Y96.785 E23.88138
G1 X108.715 Y96.284 E23.90360
G1 X109.070 Y96.284 E23.91472
G1 X109.216 Y96.430 E23.92120
G1 E22.92120 F1800.00000
G92 E0
G1 Z1.200 F7800.000
G1 X98.427 Y96.144 F7800.000
G1 E1.00000 F1800.00000
G1 X109.356 Y96.144 E1.34164 F600.000
